;Generated by OrcaSlicer fixture (OWzx test)
;Layer height = 0.2
;Width = 0.45
;FEEDRATE:60
;FAN:128
;TEMP:210
;ACCEL:500
; filament used [g] = 5.84

T0
G28 ; home
G1 Z5 F5000 ; lift

;LAYER:0
;HEIGHT:0.2
;WIDTH:0.45
;TYPE:Skirt
G1 X50.000 Y50.000 E0.000 F600
G1 X100.000 Y50.000 E1.234 F600
G1 X100.000 Y100.000 E2.468 F600

G0 X60.000 Y60.000 F9000
;TYPE:Inner wall
G1 X60.000 Y90.000 E3.001 F1500
G1 X90.000 Y90.000 E3.512 F1500
G1 X90.000 Y60.000 E4.023 F1500
G1 X60.000 Y60.000 E4.534 F1500

G0 X55.000 Y55.000 F9000
;TYPE:Outer wall
G1 X55.000 Y95.000 E5.120 F1200
G1 X95.000 Y95.000 E5.705 F1200
G1 X95.000 Y55.000 E6.291 F1200
G1 X55.000 Y55.000 E6.877 F1200

G0 X70.000 Y70.000 F9000
;TYPE:Sparse infill
G1 X70.000 Y80.000 E7.010 F3000
G1 X80.000 Y80.000 E7.345 F3000
G1 X80.000 Y70.000 E7.680 F3000

G0 X60.000 Y60.000 F9000
;TYPE:Top surface
G1 X60.000 Y62.000 E7.720 F1800
G1 X95.000 Y62.000 E8.512 F1800
G1 X95.000 Y64.000 E9.304 F1800

G0 X60.000 Y90.000 F9000
;TYPE:Internal solid infill
G1 X95.000 Y90.000 E10.001 F2000
G1 X95.000 Y88.000 E10.498 F2000

G0 X55.000 Y95.000 F9000
;TYPE:Bridge
G1 X95.000 Y95.000 E11.100 F900
G1 X95.000 Y92.000 E11.402 F900

G0 X60.000 Y40.000 F9000
;TYPE:Gap infill
G1 X60.000 Y45.000 E11.520 F1500
G1 X65.000 Y45.000 E11.645 F1500

;LAYER:1
;HEIGHT:0.4
;WIDTH:0.5
;TYPE:Overhang wall
G1 X55.000 Y95.000 E12.010 F1100
G1 X95.000 Y95.000 E12.605 F1100
G1 X95.000 Y55.000 E13.200 F1100

G0 X55.000 Y55.000 F9000
;TYPE:Support
G1 X40.000 Y40.000 E13.500 F1200
G1 X45.000 Y45.000 E13.812 F1200
G1 X50.000 Y50.000 E14.124 F1200

G0 X35.000 Y35.000 F9000
;TYPE:Support interface
G1 X36.000 Y36.000 E14.200 F1000
G1 X37.000 Y37.000 E14.276 F1000

G0 X100.000 Y100.000 F9000
T1
;TYPE:Prime tower
G1 X110.000 Y100.000 E14.900 F1500
G1 X110.000 Y110.000 E15.345 F1500
G1 X100.000 Y110.000 E15.790 F1500

M400
M104 S0 ; turn off hotend
M140 S0 ; turn off bed
M84 ; disable motors
